svgs/duotone/circle-trash.svg

<svg xmlns="http://www.w3.org/2000/svg" viewBox="0 0 512 512"><!-- Font Awesome Pro 6.0.0-alpha2 by @fontawesome - https://fontawesome.com License - https://fontawesome.com/license (Commercial License) --><defs><style>.fa-secondary{opacity:.4}</style></defs><path d="M256 16C123.451 16 16 123.451 16 256S123.451 496 256 496S496 388.549 496 256S388.549 16 256 16ZM341.406 361.5C340.625 373.922 329.891 384 317.453 384H194.547C182.109 384 171.375 373.922 170.594 361.5L160 192H352L341.406 361.5ZM352 160H160C151.164 160 144 152.836 144 144C144 135.162 151.164 128 160 128H208L213.789 116.422C215.145 113.711 217.914 112 220.943 112H291.057C294.086 112 296.857 113.711 298.211 116.422L304 128H352C360.838 128 368 135.162 368 144C368 152.836 360.838 160 352 160Z" class="fa-secondary"/><path d="M170.594 361.5C171.375 373.922 182.109 384 194.547 384H317.453C329.891 384 340.625 373.922 341.406 361.5L352 192H160L170.594 361.5ZM352 128H304L298.211 116.422C296.857 113.711 294.086 112 291.057 112H220.943C217.914 112 215.145 113.711 213.789 116.422L208 128H160C151.164 128 144 135.162 144 144C144 152.836 151.164 160 160 160H352C360.838 160 368 152.836 368 144C368 135.162 360.838 128 352 128Z" class="fa-primary"/></svg>

<svg xmlns="http://www.w3.org/2000/svg" viewBox="0 0 512 512"><!--! Font Awesome Pro 6.0.0-alpha3 by @fontawesome - https://fontawesome.com License - https://fontawesome.com/license (Commercial License) --><defs><style>.fa-secondary{opacity:.4}</style></defs><path class="fa-primary" d="M170.6 361.5C171.4 373.9 182.1 384 194.5 384h122.9c12.44 0 23.17-10.08 23.95-22.5L352 192H160L170.6 361.5zM352 128h-48l-5.789-11.58C296.9 113.7 294.1 112 291.1 112H220.9c-3.029 0-5.799 1.711-7.154 4.422L208 128H160C151.2 128 144 135.2 144 144C144 152.8 151.2 160 160 160h192c8.838 0 16-7.164 16-16C368 135.2 360.8 128 352 128z"/><path class="fa-secondary" d="M256 0C114.6 0 0 114.6 0 256s114.6 256 256 256s256-114.6 256-256S397.4 0 256 0zM341.4 361.5C340.6 373.9 329.9 384 317.5 384H194.5c-12.44 0-23.17-10.08-23.95-22.5L160 192h192L341.4 361.5zM352 160H160C151.2 160 144 152.8 144 144C144 135.2 151.2 128 160 128h48l5.789-11.58C215.1 113.7 217.9 112 220.9 112h70.11c3.029 0 5.801 1.711 7.154 4.422L304 128H352c8.838 0 16 7.162 16 16C368 152.8 360.8 160 352 160z"/></svg>
